svgs/tokopedia.svg

<svg width="192" height="192" viewBox="0 0 192 192" fill="none" xmlns="http://www.w3.org/2000/svg">
<path fill-rule="evenodd" clip-rule="evenodd" d="M96 28C86.4957 28 78.2198 33.307 73.9916 41.1275C82.7358 42.123 88.8901 44 96 47.332C103.11 44 109.264 42.123 118.008 41.1275C113.781 33.3093 105.506 28 96 28ZM96 16C80.0274 16 66.4321 26.1168 61.2463 40.2801C52.932 39.9999 42.462 40 28.5305 40H28.5303H28C24.6863 40 22 42.6863 22 46V170C22 173.314 24.6863 176 28 176H120C147.614 176 170 153.614 170 126V46C170 42.6863 167.314 40 164 40H163.47H163.469C149.538 40 139.068 39.9999 130.754 40.2801C125.566 26.1132 111.97 16 96 16ZM34 52.001V164H120C140.987 164 158 146.987 158 126V52.001C139.498 52.01 128.378 52.0986 120.128 52.967C111.436 53.882 106.129 55.6438 98.6833 59.3666C96.9941 60.2111 95.0059 60.2111 93.3167 59.3666C85.8712 55.6438 80.5637 53.882 71.8719 52.967C63.6221 52.0986 52.5021 52.01 34 52.001ZM50 96C50 86.0589 58.0589 78 68 78C77.9411 78 86 86.0589 86 96C86 105.941 77.9411 114 68 114C58.0589 114 50 105.941 50 96ZM68 66C51.4315 66 38 79.4315 38 96C38 112.569 51.4315 126 68 126C69.1262 126 70.2378 125.938 71.3318 125.817L91.7574 146.243C94.1005 148.586 97.8995 148.586 100.243 146.243L120.668 125.817C121.762 125.938 122.874 126 124 126C140.569 126 154 112.569 154 96C154 79.4315 140.569 66 124 66C111.236 66 100.334 73.9713 96 85.2072C91.6662 73.9713 80.764 66 68 66ZM108.082 121.433C102.625 118.011 98.3483 112.881 96 106.793C93.6517 112.881 89.3749 118.011 83.9184 121.433L96 133.515L108.082 121.433ZM124 78C114.059 78 106 86.0589 106 96C106 105.941 114.059 114 124 114C133.941 114 142 105.941 142 96C142 86.0589 133.941 78 124 78ZM76 96C76 100.418 72.4183 104 68 104C63.5817 104 60 100.418 60 96C60 91.5817 63.5817 88 68 88C72.4183 88 76 91.5817 76 96ZM124 104C128.418 104 132 100.418 132 96C132 91.5817 128.418 88 124 88C119.582 88 116 91.5817 116 96C116 100.418 119.582 104 124 104Z" fill="black"/>
</svg>

<svg xmlns="http://www.w3.org/2000/svg" width="192" height="192" fill="none" xmlns:v="https://vecta.io/nano"><path fill-rule="evenodd" d="M96 28c-9.504 0-17.78 5.307-22.008 13.127C82.736 42.123 88.89 44 96 47.332c7.11-3.332 13.264-5.209 22.008-6.205C113.781 33.309 105.506 28 96 28zm0-12c-15.973 0-29.568 10.117-34.754 24.28C52.932 40 42.462 40 28.531 40h0H28a6 6 0 0 0-6 6v124a6 6 0 0 0 6 6h92c27.614 0 50-22.386 50-50V46a6 6 0 0 0-6-6h-.53-.001c-13.931 0-24.401 0-32.715.28C125.566 26.113 111.97 16 96 16zM34 52.001V164h86c20.987 0 38-17.013 38-38V52.001c-18.502.009-29.622.098-37.872.966-8.692.915-13.999 2.677-21.445 6.4a6 6 0 0 1-5.367 0c-7.445-3.723-12.753-5.485-21.445-6.4-8.25-.868-19.37-.957-37.872-.966zM50 96c0-9.941 8.059-18 18-18s18 8.059 18 18-8.059 18-18 18-18-8.059-18-18zm18-30c-16.568 0-30 13.432-30 30s13.432 30 30 30a30.3 30.3 0 0 0 3.332-.183l20.426 20.426a6 6 0 0 0 8.486 0l20.425-20.426c1.094.121 2.206.183 3.332.183 16.569 0 30-13.431 30-30s-13.431-30-30-30c-12.764 0-23.666 7.971-28 19.207C91.666 73.971 80.764 66 68 66zm40.082 55.433A30.1 30.1 0 0 1 96 106.793c-2.348 6.088-6.625 11.218-12.082 14.64L96 133.515l12.082-12.082zM124 78c-9.941 0-18 8.059-18 18s8.059 18 18 18 18-8.059 18-18-8.059-18-18-18zM76 96a8 8 0 1 1-16 0 8 8 0 1 1 16 0zm48 8a8 8 0 1 0 0-16 8 8 0 1 0 0 16z" fill="#000"/></svg>
